findly-builder/apps/searchassist/src/assets/icons/pricing/roundblue.svg

<svg width="18" height="18" viewBox="0 0 18 18" fill="none" xmlns="http://www.w3.org/2000/svg">
<path d="M9.22303 0.878306C4.74549 0.751354 1.00526 4.29627 0.878306 8.77381C0.751354 13.2514 4.29627 16.9965 8.77381 17.1234C13.2514 17.2455 16.9965 13.7055 17.1234 9.22303C17.1384 8.64921 17.0911 8.08819 16.9895 7.54557C16.9005 7.0704 16.3272 6.92003 15.9755 7.25172C15.8063 7.4113 15.7362 7.64794 15.7757 7.87715C15.8492 8.30427 15.8848 8.74313 15.8734 9.19374C15.766 12.9828 12.5971 15.976 8.80799 15.8734C5.01893 15.766 2.02088 12.5971 2.12342 8.80799C2.23085 5.01893 5.39979 2.02088 9.18885 2.12342C10.255 2.157 11.2561 2.43231 12.1458 2.89664C12.4025 3.03058 12.7189 3.00045 12.929 2.80128C13.2266 2.51916 13.1851 2.03246 12.8236 1.83872C11.7483 1.2623 10.5283 0.914343 9.22303 0.878306ZM15.6903 3.61512C15.4463 3.37107 15.0506 3.37107 14.8065 3.61512L7.74842 10.6732L5.87342 8.80799L5.68704 8.6187C5.44535 8.37324 5.04995 8.3717 4.80636 8.61529C4.5629 8.85875 4.56429 9.25389 4.80944 9.49564L4.99842 9.68199L7.39487 12.0861C7.59004 12.2819 7.90706 12.2822 8.10254 12.0867L15.6903 4.49891C15.9344 4.25486 15.9344 3.85917 15.6903 3.61512Z" fill="#7027E5"/>
</svg>

<svg width="18" height="18" fill="none" xmlns="http://www.w3.org/2000/svg"><path d="M9.223.878C4.745.751 1.005 4.296.878 8.774c-.127 4.477 3.418 8.223 7.896 8.35 4.477.122 8.223-3.418 8.35-7.901a7.973 7.973 0 0 0-.134-1.677c-.09-.476-.663-.626-1.014-.294a.694.694 0 0 0-.2.625c.073.427.109.866.097 1.317-.107 3.789-3.276 6.782-7.065 6.68a6.89 6.89 0 0 1-6.685-7.066A6.89 6.89 0 0 1 9.19 2.123a6.834 6.834 0 0 1 2.957.774.68.68 0 0 0 .783-.096c.298-.282.256-.769-.105-.962a8.068 8.068 0 0 0-3.601-.96Zm6.467 2.737a.625.625 0 0 0-.883 0l-7.059 7.058-1.875-1.865-.186-.19a.62.62 0 1 0-.878.878l.19.186 2.396 2.404a.5.5 0 0 0 .708 0L15.69 4.5a.625.625 0 0 0 0-.884Z" fill="#7027E5"/></svg>
